X: 1
T:Harry Schaefer's Varsoviana No 1
M:3/4
L:1/8
S:Harry Schaefer's manuscripts
A:Australia
Z:Transcribed into ABC by John Furlonger
K:D
A2||f>e d2 F2|A4 A2|f>e d>f b>f|a4 f2|g>f e2 d2|c4 A2|a>g b>a g>e|f4 A2|
f>e d2 F2|A4 A2|f>e d>f b>f|a4 f2|g>f e2 d2|c4 A2|a>^g b>a f>e|d4:|
A>d||f>d f2 A>d|f>d f2 A>d|f>e f>e g>f|e4 A>c|e>c e2 A>d|e>c e2 A>d|e>ce
>c f>e|
d4 A>d|f>d f2 A>d|f>d g2 A>d|f>d f>d g>f|e4 A>c|e>c e2 A>c|e>c e2 A>c|e>
c e>c f>e|d4:|
